remix/Media/eject-fill.svg

<svg viewBox="0 0 24 24" fill="currentColor" xmlns="http://www.w3.org/2000/svg"><path d="M12.416 3.62407L19.4818 14.2227C19.6349 14.4524 19.5729 14.7629 19.3431 14.9161C19.261 14.9708 19.1645 15 19.0657 15H4.93426C4.65812 15 4.43426 14.7762 4.43426 14.5C4.43426 14.4013 4.46348 14.3048 4.51823 14.2227L11.584 3.62407C11.7372 3.39431 12.0476 3.33222 12.2774 3.4854C12.3323 3.52201 12.3794 3.56914 12.416 3.62407ZM5 17H19C19.5523 17 20 17.4477 20 18C20 18.5523 19.5523 19 19 19H5C4.44772 19 4 18.5523 4 18C4 17.4477 4.44772 17 5 17Z"/></svg>

<svg viewBox="0 0 24 24" xmlns="http://www.w3.org/2000/svg"><path fill="none" d="M0 0h24v24H0Z"/><path d="M12.416 3.62l7.06 10.599v0c.15.22.09.54-.14.69 -.09.05-.18.08-.28.08H4.91v0c-.28-.01-.5-.23-.5-.51 0-.1.02-.2.08-.28L11.55 3.6V3.59c.15-.23.46-.3.69-.14 .05.03.1.08.13.13ZM5 16.99h14v0c.55 0 1 .44 1 1 0 .55-.45 1-1 1H5v0c-.56 0-1-.45-1-1 0-.56.44-1 1-1Z"/></svg>
